svgs/sharp-thin/kit-medical.svg

<svg xmlns="http://www.w3.org/2000/svg" viewBox="0 0 576 512"><!--! Font Awesome Pro 6.6.0 by @fontawesome - https://fontawesome.com License - https://fontawesome.com/license (Commercial License) Copyright 2024 Fonticons, Inc. --><path d="M112 464l0-416 352 0 0 416-352 0zm-16 0l-80 0L16 48l80 0 0 416zm8-432l-8 0L16 32 0 32 0 48 0 464l0 16 16 0 80 0 8 0 8 0 352 0 8 0 8 0 80 0 16 0 0-16 0-416 0-16-16 0-80 0-8 0-8 0L112 32l-8 0zM560 464l-80 0 0-416 80 0 0 416zM256 144l-8 0 0 8 0 64-64 0-8 0 0 8 0 64 0 8 8 0 64 0 0 64 0 8 8 0 64 0 8 0 0-8 0-64 64 0 8 0 0-8 0-64 0-8-8 0-64 0 0-64 0-8-8 0-64 0zm8 80l0-64 48 0 0 64 0 8 8 0 64 0 0 48-64 0-8 0 0 8 0 64-48 0 0-64 0-8-8 0-64 0 0-48 64 0 8 0 0-8z"/></svg>

<svg xmlns="http://www.w3.org/2000/svg" viewBox="0 0 576 512"><!--! Font Awesome Pro 6.5.2 by @fontawesome - https://fontawesome.com License - https://fontawesome.com/license (Commercial License) Copyright 2024 Fonticons, Inc. --><path d="M112 464V48H464V464H112zm-16 0H16V48H96V464zm8-432H96 16 0V48 464v16H16 96h8 8H464h8 8 80 16V464 48 32H560 480h-8-8H112h-8zM560 464H480V48h80V464zM256 144h-8v8 64H184h-8v8 64 8h8 64v64 8h8 64 8v-8V296h64 8v-8V224v-8h-8H328V152v-8h-8H256zm8 80V160h48v64 8h8 64v48H320h-8v8 64H264V288v-8h-8H192V232h64 8v-8z"/></svg>
